X:1
T: Mr. Alex. Sheriff
C:Alexander Walker
R:Strathspey
Q: 128
K:A
M:4/4
L:1/16
|:C2|A,3e dcBG A4 E3C|D3B, E3A, G,B3 B3c|dcBA e3G A4 E3C|((3D2E2F2) ((3E2F2G2) AA,3 A,2C2|
A,3e dcBG A4 E3C|D3B, E3A, G,B3 B3c|dcBA e3G A4 E3C|((3D2E2F2) ((3E2F2G2) AA,3 A,2f2|
e3A fedc eA3 a3f|e3A e3c fB3 B3a|e3A fedc eA3 E3C|D3F B,3E CA,3 A,3f|
e3A fedc eA3 a3f|e3A e3c fB3 B3g|a3f g3e f3d e3c|d3B e3B cA3 A2:|
